X:221
T:Steirische Jodler und Taenze Nr. 1 - 48 (19.)
C:traditionell
A:Salzkammergut
S:MIDI erhalten von Christian Amon. Nach einer kopie im besitz von Johann Stoeckl eines manuscriptes. Stoeckl(zitiert von Amon): "diese sammlung wurde 1935 im hause der familie Hohenlohe-Schillingfuerst gefunden. Sie wurde von einem der beiden brueder Steinegger 1866 verfasst. Die originale sind im Ausseer Kammerhofmuseum".
M:3/4
L:1/8
K:G
V:1
d2 gb d'2 | c'e' f3 e | d2 fa c'2 | bd' c3 f |\
e2 fa c'2 | d2 gb d'b | c'e' f3 f | g4 z2 |*
V:2
A2 dg b2 | ac' d3 c | A2 df a2 | gb d3 B |\
c2 df a2 | B2 dg bg | ac' d3 d | B4 z2 |*
